output/footprints/LKBD_PCBFab.pretty/JLCPCB_2DBarcode_5x5mm.svg

<?xml version="1.0" standalone="no"?>
 <!DOCTYPE svg PUBLIC "-//W3C//DTD SVG 1.1//EN" 
 "http://www.w3.org/Graphics/SVG/1.1/DTD/svg11.dtd"> 
<svg
  xmlns:svg="http://www.w3.org/2000/svg"
  xmlns="http://www.w3.org/2000/svg"
  xmlns:xlink="http://www.w3.org/1999/xlink"
  version="1.1"
  width="20.7010mm" height="8.9916mm" viewBox="0.0000 0.0000 20.7010 8.9916">
<title>SVG Image created as JLCPCB_2DBarcode_5x5mm.svg date 2025/05/12 22:52:38 </title>
  <desc>Image generated by PCBNEW </desc>
<g style="fill:#000000; fill-opacity:1.0000;stroke:#000000; stroke-opacity:1.0000;
stroke-linecap:round; stroke-linejoin:round;"
 transform="translate(0 0) scale(1 1)">
<path style="fill:#F2EDA1; fill-opacity:1.0000; stroke:none;fill-rule:evenodd;"
d="M 7.8631,0.0500
12.8631,0.0500
12.8631,5.0500
7.8631,5.0500
Z" /> 
</g>
<g style="fill:none; 
stroke:#AFAFAF; stroke-width:0.1500; stroke-opacity:1; 
stroke-linecap:round; stroke-linejoin:round;">
<text x="10.3631" y="8.6500"
textLength="20.7262" font-size="1.3333" lengthAdjust="spacingAndGlyphs"
text-anchor="middle" opacity="0" stroke-opacity="0">JLCPCB_2DBarcode_5x5mm</text>
<g class="stroked-text"><desc>JLCPCB_2DBarcode_5x5mm</desc>
<path d="M0.6488 7.6048
L0.6488 8.3191
" />
<path d="M0.6488 8.3191
L0.6012 8.4620
" />
<path d="M0.6012 8.4620
L0.5060 8.5572
" />
<path d="M0.5060 8.5572
L0.3631 8.6048
" />
<path d="M0.3631 8.6048
L0.2679 8.6048
" />
<path d="M1.6012 8.6048
L1.1250 8.6048
" />
<path d="M1.1250 8.6048
L1.1250 7.6048
" />
<path d="M2.5060 8.5096
L2.4583 8.5572
" />
<path d="M2.4583 8.5572
L2.3155 8.6048
" />
<path d="M2.3155 8.6048
L2.2202 8.6048
" />
<path d="M2.2202 8.6048
L2.0774 8.5572
" />
<path d="M2.0774 8.5572
L1.9821 8.4620
" />
<path d="M1.9821 8.4620
L1.9345 8.3667
" />
<path d="M1.9345 8.3667
L1.8869 8.1762
" />
<path d="M1.8869 8.1762
L1.8869 8.0334
" />
<path d="M1.8869 8.0334
L1.9345 7.8429
" />
<path d="M1.9345 7.8429
L1.9821 7.7477
" />
<path d="M1.9821 7.7477
L2.0774 7.6524
" />
<path d="M2.0774 7.6524
L2.2202 7.6048
" />
<path d="M2.2202 7.6048
L2.3155 7.6048
" />
<path d="M2.3155 7.6048
L2.4583 7.6524
" />
<path d="M2.4583 7.6524
L2.5060 7.7001
" />
<path d="M2.9345 8.6048
L2.9345 7.6048
" />
<path d="M2.9345 7.6048
L3.3155 7.6048
" />
<path d="M3.3155 7.6048
L3.4107 7.6524
" />
<path d="M3.4107 7.6524
L3.4583 7.7001
" />
<path d="M3.4583 7.7001
L3.5060 7.7953
" />
<path d="M3.5060 7.7953
L3.5060 7.9382
" />
<path d="M3.5060 7.9382
L3.4583 8.0334
" />
<path d="M3.4583 8.0334
L3.4107 8.0810
" />
<path d="M3.4107 8.0810
L3.3155 8.1286
" />
<path d="M3.3155 8.1286
L2.9345 8.1286
" />
<path d="M4.5060 8.5096
L4.4583 8.5572
" />
<path d="M4.4583 8.5572
L4.3155 8.6048
" />
<path d="M4.3155 8.6048
L4.2202 8.6048
" />
<path d="M4.2202 8.6048
L4.0774 8.5572
" />
<path d="M4.0774 8.5572
L3.9821 8.4620
" />
<path d="M3.9821 8.4620
L3.9345 8.3667
" />
<path d="M3.9345 8.3667
L3.8869 8.1762
" />
<path d="M3.8869 8.1762
L3.8869 8.0334
" />
<path d="M3.8869 8.0334
L3.9345 7.8429
" />
<path d="M3.9345 7.8429
L3.9821 7.7477
" />
<path d="M3.9821 7.7477
L4.0774 7.6524
" />
<path d="M4.0774 7.6524
L4.2202 7.6048
" />
<path d="M4.2202 7.6048
L4.3155 7.6048
" />
<path d="M4.3155 7.6048
L4.4583 7.6524
" />
<path d="M4.4583 7.6524
L4.5060 7.7001
" />
<path d="M5.2679 8.0810
L5.4107 8.1286
" />
<path d="M5.4107 8.1286
L5.4583 8.1762
" />
<path d="M5.4583 8.1762
L5.5060 8.2715
" />
<path d="M5.5060 8.2715
L5.5060 8.4143
" />
<path d="M5.5060 8.4143
L5.4583 8.5096
" />
<path d="M5.4583 8.5096
L5.4107 8.5572
" />
<path d="M5.4107 8.5572
L5.3155 8.6048
" />
<path d="M5.3155 8.6048
L4.9345 8.6048
" />
<path d="M4.9345 8.6048
L4.9345 7.6048
" />
<path d="M4.9345 7.6048
L5.2679 7.6048
" />
<path d="M5.2679 7.6048
L5.3631 7.6524
" />
<path d="M5.3631 7.6524
L5.4107 7.7001
" />
<path d="M5.4107 7.7001
L5.4583 7.7953
" />
<path d="M5.4583 7.7953
L5.4583 7.8905
" />
<path d="M5.4583 7.8905
L5.4107 7.9858
" />
<path d="M5.4107 7.9858
L5.3631 8.0334
" />
<path d="M5.3631 8.0334
L5.2679 8.0810
" />
<path d="M5.2679 8.0810
L4.9345 8.0810
" />
<path d="M5.6964 8.7001
L6.4583 8.7001
" />
<path d="M6.6488 7.7001
L6.6964 7.6524
" />
<path d="M6.6964 7.6524
L6.7917 7.6048
" />
<path d="M6.7917 7.6048
L7.0298 7.6048
" />
<path d="M7.0298 7.6048
L7.1250 7.6524
" />
<path d="M7.1250 7.6524
L7.1726 7.7001
" />
<path d="M7.1726 7.7001
L7.2202 7.7953
" />
<path d="M7.2202 7.7953
L7.2202 7.8905
" />
<path d="M7.2202 7.8905
L7.1726 8.0334
" />
<path d="M7.1726 8.0334
L6.6012 8.6048
" />
<path d="M6.6012 8.6048
L7.2202 8.6048
" />
<path d="M7.6488 8.6048
L7.6488 7.6048
" />
<path d="M7.6488 7.6048
L7.8869 7.6048
" />
<path d="M7.8869 7.6048
L8.0298 7.6524
" />
<path d="M8.0298 7.6524
L8.1250 7.7477
" />
<path d="M8.1250 7.7477
L8.1726 7.8429
" />
<path d="M8.1726 7.8429
L8.2202 8.0334
" />
<path d="M8.2202 8.0334
L8.2202 8.1762
" />
<path d="M8.2202 8.1762
L8.1726 8.3667
" />
<path d="M8.1726 8.3667
L8.1250 8.4620
" />
<path d="M8.1250 8.4620
L8.0298 8.5572
" />
<path d="M8.0298 8.5572
L7.8869 8.6048
" />
<path d="M7.8869 8.6048
L7.6488 8.6048
" />
<path d="M8.9821 8.0810
L9.1250 8.1286
" />
<path d="M9.1250 8.1286
L9.1726 8.1762
" />
<path d="M9.1726 8.1762
L9.2202 8.2715
" />
<path d="M9.2202 8.2715
L9.2202 8.4143
" />
<path d="M9.2202 8.4143
L9.1726 8.5096
" />
<path d="M9.1726 8.5096
L9.1250 8.5572
" />
<path d="M9.1250 8.5572
L9.0298 8.6048
" />
<path d="M9.0298 8.6048
L8.6488 8.6048
" />
<path d="M8.6488 8.6048
L8.6488 7.6048
" />
<path d="M8.6488 7.6048
L8.9821 7.6048
" />
<path d="M8.9821 7.6048
L9.0774 7.6524
" />
<path d="M9.0774 7.6524
L9.1250 7.7001
" />
<path d="M9.1250 7.7001
L9.1726 7.7953
" />
<path d="M9.1726 7.7953
L9.1726 7.8905
" />
<path d="M9.1726 7.8905
L9.1250 7.9858
" />
<path d="M9.1250 7.9858
L9.0774 8.0334
" />
<path d="M9.0774 8.0334
L8.9821 8.0810
" />
<path d="M8.9821 8.0810
L8.6488 8.0810
" />
<path d="M10.0774 8.6048
L10.0774 8.0810
" />
<path d="M10.0774 8.0810
L10.0298 7.9858
" />
<path d="M10.0298 7.9858
L9.9345 7.9382
" />
<path d="M9.9345 7.9382
L9.7440 7.9382
" />
<path d="M9.7440 7.9382
L9.6488 7.9858
" />
<path d="M10.0774 8.5572
L9.9821 8.6048
" />
<path d="M9.9821 8.6048
L9.7440 8.6048
" />
<path d="M9.7440 8.6048
L9.6488 8.5572
" />
<path d="M9.6488 8.5572
L9.6012 8.4620
" />
<path d="M9.6012 8.4620
L9.6012 8.3667
" />
<path d="M9.6012 8.3667
L9.6488 8.2715
" />
<path d="M9.6488 8.2715
L9.7440 8.2239
" />
<path d="M9.7440 8.2239
L9.9821 8.2239
" />
<path d="M9.9821 8.2239
L10.0774 8.1762
" />
<path d="M10.5536 8.6048
L10.5536 7.9382
" />
<path d="M10.5536 8.1286
L10.6012 8.0334
" />
<path d="M10.6012 8.0334
L10.6488 7.9858
" />
<path d="M10.6488 7.9858
L10.7440 7.9382
" />
<path d="M10.7440 7.9382
L10.8393 7.9382
" />
<path d="M11.6012 8.5572
L11.5060 8.6048
" />
<path d="M11.5060 8.6048
L11.3155 8.6048
" />
<path d="M11.3155 8.6048
L11.2202 8.5572
" />
<path d="M11.2202 8.5572
L11.1726 8.5096
" />
<path d="M11.1726 8.5096
L11.1250 8.4143
" />
<path d="M11.1250 8.4143
L11.1250 8.1286
" />
<path d="M11.1250 8.1286
L11.1726 8.0334
" />
<path d="M11.1726 8.0334
L11.2202 7.9858
" />
<path d="M11.2202 7.9858
L11.3155 7.9382
" />
<path d="M11.3155 7.9382
L11.5060 7.9382
" />
<path d="M11.5060 7.9382
L11.6012 7.9858
" />
<path d="M12.1726 8.6048
L12.0774 8.5572
" />
<path d="M12.0774 8.5572
L12.0298 8.5096
" />
<path d="M12.0298 8.5096
L11.9821 8.4143
" />
<path d="M11.9821 8.4143
L11.9821 8.1286
" />
<path d="M11.9821 8.1286
L12.0298 8.0334
" />
<path d="M12.0298 8.0334
L12.0774 7.9858
" />
<path d="M12.0774 7.9858
L12.1726 7.9382
" />
<path d="M12.1726 7.9382
L12.3155 7.9382
" />
<path d="M12.3155 7.9382
L12.4107 7.9858
" />
<path d="M12.4107 7.9858
L12.4583 8.0334
" />
<path d="M12.4583 8.0334
L12.5060 8.1286
" />
<path d="M12.5060 8.1286
L12.5060 8.4143
" />
<path d="M12.5060 8.4143
L12.4583 8.5096
" />
<path d="M12.4583 8.5096
L12.4107 8.5572
" />
<path d="M12.4107 8.5572
L12.3155 8.6048
" />
<path d="M12.3155 8.6048
L12.1726 8.6048
" />
<path d="M13.3631 8.6048
L13.3631 7.6048
" />
<path d="M13.3631 8.5572
L13.2679 8.6048
" />
<path d="M13.2679 8.6048
L13.0774 8.6048
" />
<path d="M13.0774 8.6048
L12.9821 8.5572
" />
<path d="M12.9821 8.5572
L12.9345 8.5096
" />
<path d="M12.9345 8.5096
L12.8869 8.4143
" />
<path d="M12.8869 8.4143
L12.8869 8.1286
" />
<path d="M12.8869 8.1286
L12.9345 8.0334
" />
<path d="M12.9345 8.0334
L12.9821 7.9858
" />
<path d="M12.9821 7.9858
L13.0774 7.9382
" />
<path d="M13.0774 7.9382
L13.2679 7.9382
" />
<path d="M13.2679 7.9382
L13.3631 7.9858
" />
<path d="M14.2202 8.5572
L14.1250 8.6048
" />
<path d="M14.1250 8.6048
L13.9345 8.6048
" />
<path d="M13.9345 8.6048
L13.8393 8.5572
" />
<path d="M13.8393 8.5572
L13.7917 8.4620
" />
<path d="M13.7917 8.4620
L13.7917 8.0810
" />
<path d="M13.7917 8.0810
L13.8393 7.9858
" />
<path d="M13.8393 7.9858
L13.9345 7.9382
" />
<path d="M13.9345 7.9382
L14.1250 7.9382
" />
<path d="M14.1250 7.9382
L14.2202 7.9858
" />
<path d="M14.2202 7.9858
L14.2679 8.0810
" />
<path d="M14.2679 8.0810
L14.2679 8.1762
" />
<path d="M14.2679 8.1762
L13.7917 8.2715
" />
<path d="M14.4583 8.7001
L15.2202 8.7001
" />
<path d="M15.9345 7.6048
L15.4583 7.6048
" />
<path d="M15.4583 7.6048
L15.4107 8.0810
" />
<path d="M15.4107 8.0810
L15.4583 8.0334
" />
<path d="M15.4583 8.0334
L15.5536 7.9858
" />
<path d="M15.5536 7.9858
L15.7917 7.9858
" />
<path d="M15.7917 7.9858
L15.8869 8.0334
" />
<path d="M15.8869 8.0334
L15.9345 8.0810
" />
<path d="M15.9345 8.0810
L15.9821 8.1762
" />
<path d="M15.9821 8.1762
L15.9821 8.4143
" />
<path d="M15.9821 8.4143
L15.9345 8.5096
" />
<path d="M15.9345 8.5096
L15.8869 8.5572
" />
<path d="M15.8869 8.5572
L15.7917 8.6048
" />
<path d="M15.7917 8.6048
L15.5536 8.6048
" />
<path d="M15.5536 8.6048
L15.4583 8.5572
" />
<path d="M15.4583 8.5572
L15.4107 8.5096
" />
<path d="M16.3155 8.6048
L16.8393 7.9382
" />
<path d="M16.3155 7.9382
L16.8393 8.6048
" />
<path d="M17.6964 7.6048
L17.2202 7.6048
" />
<path d="M17.2202 7.6048
L17.1726 8.0810
" />
<path d="M17.1726 8.0810
L17.2202 8.0334
" />
<path d="M17.2202 8.0334
L17.3155 7.9858
" />
<path d="M17.3155 7.9858
L17.5536 7.9858
" />
<path d="M17.5536 7.9858
L17.6488 8.0334
" />
<path d="M17.6488 8.0334
L17.6964 8.0810
" />
<path d="M17.6964 8.0810
L17.7440 8.1762
" />
<path d="M17.7440 8.1762
L17.7440 8.4143
" />
<path d="M17.7440 8.4143
L17.6964 8.5096
" />
<path d="M17.6964 8.5096
L17.6488 8.5572
" />
<path d="M17.6488 8.5572
L17.5536 8.6048
" />
<path d="M17.5536 8.6048
L17.3155 8.6048
" />
<path d="M17.3155 8.6048
L17.2202 8.5572
" />
<path d="M17.2202 8.5572
L17.1726 8.5096
" />
<path d="M18.1726 8.6048
L18.1726 7.9382
" />
<path d="M18.1726 8.0334
L18.2202 7.9858
" />
<path d="M18.2202 7.9858
L18.3155 7.9382
" />
<path d="M18.3155 7.9382
L18.4583 7.9382
" />
<path d="M18.4583 7.9382
L18.5536 7.9858
" />
<path d="M18.5536 7.9858
L18.6012 8.0810
" />
<path d="M18.6012 8.0810
L18.6012 8.6048
" />
<path d="M18.6012 8.0810
L18.6488 7.9858
" />
<path d="M18.6488 7.9858
L18.7440 7.9382
" />
<path d="M18.7440 7.9382
L18.8869 7.9382
" />
<path d="M18.8869 7.9382
L18.9821 7.9858
" />
<path d="M18.9821 7.9858
L19.0298 8.0810
" />
<path d="M19.0298 8.0810
L19.0298 8.6048
" />
<path d="M19.5060 8.6048
L19.5060 7.9382
" />
<path d="M19.5060 8.0334
L19.5536 7.9858
" />
<path d="M19.5536 7.9858
L19.6488 7.9382
" />
<path d="M19.6488 7.9382
L19.7917 7.9382
" />
<path d="M19.7917 7.9382
L19.8869 7.9858
" />
<path d="M19.8869 7.9858
L19.9345 8.0810
" />
<path d="M19.9345 8.0810
L19.9345 8.6048
" />
<path d="M19.9345 8.0810
L19.9821 7.9858
" />
<path d="M19.9821 7.9858
L20.0774 7.9382
" />
<path d="M20.0774 7.9382
L20.2202 7.9382
" />
<path d="M20.2202 7.9382
L20.3155 7.9858
" />
<path d="M20.3155 7.9858
L20.3631 8.0810
" />
<path d="M20.3631 8.0810
L20.3631 8.6048
" />
</g></g>
<g style="fill:none; 
stroke:#AFAFAF; stroke-width:0.2500; stroke-opacity:1; 
stroke-linecap:round; stroke-linejoin:round;">
<text x="10.3631" y="3.5500"
textLength="2.0643" font-size="2.6667" lengthAdjust="spacingAndGlyphs"
text-anchor="middle" opacity="0" stroke-opacity="0">F</text>
<g class="stroked-text"><desc>F</desc>
<path d="M10.6488 2.4146
L9.9821 2.4146
" />
<path d="M9.9821 3.4622
L9.9821 1.4622
" />
<path d="M9.9821 1.4622
L10.9345 1.4622
" />
</g></g>
<g style="fill:none; 
stroke:#AFAFAF; stroke-width:0.1500; stroke-opacity:1; 
stroke-linecap:round; stroke-linejoin:round;">
<text x="10.3631" y="6.5500"
textLength="1.1071" font-size="1.3333" lengthAdjust="spacingAndGlyphs"
text-anchor="middle" opacity="0" stroke-opacity="0">F</text>
<g class="stroked-text"><desc>F</desc>
<path d="M10.5060 5.9810
L10.1726 5.9810
" />
<path d="M10.1726 6.5048
L10.1726 5.5048
" />
<path d="M10.1726 5.5048
L10.6488 5.5048
" />
</g><path style="fill:none; 
stroke:#AFAFAF; stroke-width:0.1000; stroke-opacity:1; 
stroke-linecap:round; stroke-linejoin:round;fill:none"
d="M 7.8631,0.0500
12.8631,0.0500
12.8631,5.0500
7.8631,5.0500
Z" /> 
<path style="fill:none; 
stroke:#AFAFAF; stroke-width:0.1000; stroke-opacity:1; 
stroke-linecap:round; stroke-linejoin:round;fill:none"
d="M 7.8631,5.0500
12.8631,5.0500
12.8631,7.0500
7.8631,7.0500
Z" /> 
</g> 
</svg>

<svg xmlns="http://www.w3.org/2000/svg" width="78.24" height="33.984" viewBox="0 0 20.701 8.992">
    <g style="fill:#000;fill-opacity:1;stroke:#000;stroke-opacity:1;stroke-linecap:round;stroke-linejoin:round">
        <path stroke="none" d="M7.863.05h5v5h-5Z" style="fill:#f2eda1;fill-opacity:1;stroke:none;fill-rule:evenodd"/>
    </g>
    <g class="stroked-text" style="fill:none;stroke:#afafaf;stroke-width:.15;stroke-opacity:1;stroke-linecap:round;stroke-linejoin:round">
        <path d="M.649 7.605v.714M.649 8.32.6 8.461M.601 8.462l-.095.095M.506 8.557l-.143.048M.363 8.605H.268M1.601 8.605h-.476M1.125 8.605v-1M2.506 8.51l-.048.047M2.458 8.557l-.143.048M2.316 8.605H2.22M2.22 8.605l-.143-.048M2.077 8.557l-.095-.095M1.982 8.462l-.047-.095M1.935 8.367l-.048-.19M1.887 8.176v-.143M1.887 8.033l.048-.19M1.935 7.843l.047-.095M1.982 7.748l.095-.096M2.077 7.652l.143-.047M2.22 7.605h.095M2.316 7.605l.142.047M2.458 7.652l.048.048M2.935 8.605v-1M2.935 7.605h.38M3.316 7.605l.095.047M3.41 7.652l.048.048M3.458 7.7l.048.095M3.506 7.795v.143M3.506 7.938l-.048.095M3.458 8.033l-.047.048M3.41 8.081l-.095.048M3.316 8.129h-.381M4.506 8.51l-.048.047M4.458 8.557l-.143.048M4.316 8.605H4.22M4.22 8.605l-.143-.048M4.077 8.557l-.095-.095M3.982 8.462l-.048-.095M3.935 8.367l-.048-.19M3.887 8.176v-.143M3.887 8.033l.047-.19M3.935 7.843l.047-.095M3.982 7.748l.095-.096M4.077 7.652l.143-.047M4.22 7.605h.096M4.316 7.605l.142.047M4.458 7.652l.048.048M5.268 8.081l.143.048M5.41 8.129l.048.047M5.458 8.176l.048.095M5.506 8.272v.142M5.506 8.414l-.048.096M5.458 8.51l-.047.047M5.41 8.557l-.095.048M5.316 8.605h-.381M4.935 8.605v-1M4.935 7.605h.333M5.268 7.605l.095.047M5.363 7.652l.048.048M5.41 7.7l.048.095M5.458 7.795v.096M5.458 7.89l-.047.096M5.41 7.986l-.047.047M5.363 8.033l-.095.048M5.268 8.081h-.333M5.696 8.7h.762M6.649 7.7l.047-.048M6.696 7.652l.096-.047M6.792 7.605h.238M7.03 7.605l.095.047M7.125 7.652l.048.048M7.173 7.7l.047.095M7.22 7.795v.096M7.22 7.89l-.047.143M7.173 8.033l-.572.572M6.601 8.605h.62M7.649 8.605v-1M7.649 7.605h.238M7.887 7.605l.143.047M8.03 7.652l.095.096M8.125 7.748l.048.095M8.173 7.843l.047.19M8.22 8.033v.143M8.22 8.176l-.047.19M8.173 8.367l-.048.095M8.125 8.462l-.095.095M8.03 8.557l-.143.048M7.887 8.605h-.238M8.982 8.081l.143.048M9.125 8.129l.048.047M9.173 8.176l.047.095M9.22 8.272v.142M9.22 8.414l-.047.096M9.173 8.51l-.048.047M9.125 8.557l-.095.048M9.03 8.605h-.381M8.649 8.605v-1M8.649 7.605h.333M8.982 7.605l.095.047M9.077 7.652l.048.048M9.125 7.7l.048.095M9.173 7.795v.096M9.173 7.89l-.048.096M9.125 7.986l-.048.047M9.077 8.033l-.095.048M8.982 8.081H8.65M10.077 8.605V8.08M10.077 8.081l-.047-.095M10.03 7.986l-.095-.048M9.935 7.938h-.191M9.744 7.938l-.095.048M10.077 8.557l-.095.048M9.982 8.605h-.238M9.744 8.605l-.095-.048M9.649 8.557 9.6 8.462M9.601 8.462v-.095M9.601 8.367l.048-.096M9.649 8.272l.095-.048M9.744 8.224h.238M9.982 8.224l.095-.048M10.554 8.605v-.667M10.554 8.129l.047-.096M10.601 8.033l.048-.047M10.649 7.986l.095-.048M10.744 7.938h.095M11.601 8.557l-.095.048M11.506 8.605h-.19M11.316 8.605l-.096-.048M11.22 8.557l-.047-.047M11.173 8.51l-.048-.096M11.125 8.414V8.13M11.125 8.129l.048-.096M11.173 8.033l.047-.047M11.22 7.986l.095-.048M11.316 7.938h.19M11.506 7.938l.095.048M12.173 8.605l-.096-.048M12.077 8.557l-.047-.047M12.03 8.51l-.048-.096M11.982 8.414V8.13M11.982 8.129l.048-.096M12.03 8.033l.047-.047M12.077 7.986l.096-.048M12.173 7.938h.143M12.316 7.938l.095.048M12.41 7.986l.048.047M12.458 8.033l.048.096M12.506 8.129v.285M12.506 8.414l-.048.096M12.458 8.51l-.047.047M12.41 8.557l-.095.048M12.316 8.605h-.143M13.363 8.605v-1M13.363 8.557l-.095.048M13.268 8.605h-.19M13.077 8.605l-.095-.048M12.982 8.557l-.047-.047M12.935 8.51l-.048-.096M12.887 8.414V8.13M12.887 8.129l.047-.096M12.935 8.033l.047-.047M12.982 7.986l.095-.048M13.077 7.938h.19M13.268 7.938l.095.048M14.22 8.557l-.095.048M14.125 8.605h-.19M13.935 8.605l-.096-.048M13.84 8.557l-.048-.095M13.792 8.462v-.381M13.792 8.081l.047-.095M13.84 7.986l.095-.048M13.935 7.938h.19M14.125 7.938l.095.048M14.22 7.986l.048.095M14.268 8.081v.095M14.268 8.176l-.476.095M14.458 8.7h.762M15.935 7.605h-.477M15.458 7.605l-.047.476M15.41 8.081l.048-.048M15.458 8.033l.096-.047M15.554 7.986h.238M15.792 7.986l.095.047M15.887 8.033l.047.048M15.935 8.081l.047.095M15.982 8.176v.238M15.982 8.414l-.047.096M15.935 8.51l-.048.047M15.887 8.557l-.095.048M15.792 8.605h-.238M15.554 8.605l-.096-.048M15.458 8.557l-.047-.047M16.316 8.605l.523-.667M16.316 7.938l.523.667M17.696 7.605h-.476M17.22 7.605l-.047.476M17.173 8.081l.047-.048M17.22 8.033l.096-.047M17.316 7.986h.238M17.554 7.986l.095.047M17.649 8.033l.047.048M17.696 8.081l.048.095M17.744 8.176v.238M17.744 8.414l-.048.096M17.696 8.51l-.047.047M17.649 8.557l-.095.048M17.554 8.605h-.238M17.316 8.605l-.096-.048M17.22 8.557l-.047-.047M18.173 8.605v-.667M18.173 8.033l.047-.047M18.22 7.986l.096-.048M18.316 7.938h.142M18.458 7.938l.096.048M18.554 7.986l.047.095M18.601 8.081v.524M18.601 8.081l.048-.095M18.649 7.986l.095-.048M18.744 7.938h.143M18.887 7.938l.095.048M18.982 7.986l.048.095M19.03 8.081v.524M19.506 8.605v-.667M19.506 8.033l.048-.047M19.554 7.986l.095-.048M19.649 7.938h.143M19.792 7.938l.095.048M19.887 7.986l.047.095M19.935 8.081v.524M19.935 8.081l.047-.095M19.982 7.986l.095-.048M20.077 7.938h.143M20.22 7.938l.096.048M20.316 7.986l.047.095M20.363 8.081v.524"/>
    </g>
    <g class="stroked-text" style="fill:none;stroke:#afafaf;stroke-width:.25;stroke-opacity:1;stroke-linecap:round;stroke-linejoin:round">
        <path d="M10.649 2.415h-.667M9.982 3.462v-2M9.982 1.462h.953"/>
    </g>
    <g style="fill:none;stroke:#afafaf;stroke-width:.15;stroke-opacity:1;stroke-linecap:round;stroke-linejoin:round">
        <g class="stroked-text">
            <path d="M10.506 5.981h-.333M10.173 6.505v-1M10.173 5.505h.476"/>
        </g>
        <path d="M7.863.05h5v5h-5ZM7.863 5.05h5v2h-5Z" style="stroke:#afafaf;stroke-width:.1;stroke-opacity:1;stroke-linecap:round;stroke-linejoin:round;fill:none"/>
    </g>
</svg>
